X:47
T:nos galan fel y cenir yn gheredigion
S:ifor ceri ms
A:ceredigion
Z:crm
M:2/4
L:1/8
Q:1/8=180
W:blewyn glas ar lan dwr teifi fal lal &amp;c
W:a dwyllodd lawer fuwch i foddi
W:arna i ni fenodd cariad
W:mwy na dwr ar gefen whwyad
W:
W:paid a meddwl fenws dirion
W:ar dy ol y dorra i 'nghalon
W:'dwy ti ond un o ddwy ar bymtheg
W:os pallu di mi dria chwaneg
K:G
d>cB>A|GBGF|EAFE/D/|EFG2:||
A>GA>G|ABcA|dde/f/g|fed2|BdAB|GGA/B/c|d>cB/c/B/A/|GDG2:||
